<?xml version="1.0" encoding="UTF-8"?>
<map version="1.10" tiledversion="1.12.1" orientation="orthogonal" renderorder="right-down" width="30" height="20" tilewidth="16" tileheight="16" infinite="0" nextlayerid="5" nextobjectid="1">
 <tileset firstgid="1" name="Dungeon_Tiles" tilewidth="16" tileheight="16" tilecount="100" columns="10">
  <image source="../../2D Pixel Dungeon Asset Pack v2.0/2D Pixel Dungeon Asset Pack/character and tileset/Dungeon_Tileset.png" trans="000000" width="160" height="160"/>
 </tileset>
 <tileset firstgid="101" name="demonstration" tilewidth="16" tileheight="16" tilecount="256" columns="16">
  <image source="../../2D Pixel Dungeon Asset Pack v2.0/2D Pixel Dungeon Asset Pack/character and tileset/demonstration.png" trans="000000" width="256" height="256"/>
 </tileset>
 <layer id="1" name="background" width="30" height="20">
  <data encoding="csv">
2,2,2,2,2,2,2,2,2,2,2,2,2,2,2,2,2,2,2,2,2,2,2,2,2,2,2,2,3,2684354562,
1610612741,18,19,20,17,18,19,20,17,18,19,20,17,18,19,20,17,18,19,20,17,18,19,20,17,18,19,20,17,2684354562,
1610612740,28,17,17,17,17,17,17,17,17,17,17,17,17,17,17,17,17,17,17,17,17,17,17,17,17,17,17,27,2684354562,
1610612739,8,17,17,17,17,17,17,17,17,17,17,17,17,17,17,17,17,17,17,17,17,17,17,17,17,17,10,7,2684354562,
1610612738,18,17,17,17,17,17,17,17,17,17,17,17,17,17,17,17,17,17,17,17,17,17,17,17,17,17,20,17,2684354562,
1610612738,28,17,17,17,17,17,17,17,17,17,17,17,17,17,17,17,17,17,17,17,17,17,17,17,17,17,17,27,2684354562,
1610612738,8,17,17,17,17,17,17,17,17,17,17,17,17,17,17,17,17,17,17,17,8,17,17,17,17,17,17,7,2684354562,
1610612738,18,17,17,17,17,17,17,17,17,17,17,17,17,17,17,17,17,17,17,17,17,17,17,17,17,17,17,17,2684354562,
1610612738,28,17,17,17,17,17,17,17,17,17,17,17,17,17,17,17,17,17,17,17,17,17,17,17,17,17,17,27,2684354562,
1610612738,8,17,17,17,17,17,17,17,17,17,17,17,17,17,17,17,17,17,17,17,17,17,17,17,17,17,17,7,2684354562,
1610612738,18,17,17,17,17,17,17,17,17,17,17,17,17,17,17,17,17,17,17,17,17,17,17,17,17,17,17,17,2684354562,
1610612738,28,17,17,17,17,17,17,17,17,17,17,17,17,17,17,17,17,17,17,17,17,17,17,17,17,17,17,27,2684354562,
1610612738,8,17,17,17,17,17,17,17,17,17,17,17,17,17,10,17,17,17,17,17,17,17,17,17,17,17,17,7,2684354562,
1610612738,18,17,17,17,17,17,17,17,17,17,17,17,17,17,17,17,17,17,17,17,17,17,20,17,17,17,20,17,2684354562,
1610612738,28,17,17,17,17,17,17,17,17,17,17,17,17,17,17,17,17,17,17,17,17,17,17,17,17,17,30,27,2684354562,
1610612738,8,17,17,17,17,17,17,17,17,17,17,17,17,9,17,17,17,17,17,17,17,17,17,17,17,17,10,7,2684354562,
1610612738,18,17,17,17,17,17,17,17,17,17,17,17,17,17,17,17,17,17,17,17,17,17,17,17,17,17,20,17,2684354562,
1610612738,28,29,17,27,28,29,30,27,28,29,30,27,17,17,17,27,28,29,30,17,17,17,17,27,28,29,30,27,2684354563,
1610612738,8,9,10,7,8,9,10,7,8,9,10,7,8,9,10,7,8,9,10,7,8,9,10,7,8,9,10,7,2684354564,
3221225477,3221225477,3221225477,3221225477,3221225477,3221225477,3221225477,3221225477,3221225477,3221225477,3221225477,3221225477,3221225477,3221225477,3221225477,3221225477,3221225477,3221225477,3221225477,3221225477,3221225477,3221225477,3221225477,3221225476,3221225475,3221225474,3221225474,3221225477,3221225476,3221225475
</data>
 </layer>
</map>
